icons/triangle-info-outline.svg

<svg xmlns="http://www.w3.org/2000/svg" width="24" height="24" viewBox="0 0 24 24">
  <path d="M9.37135227,3.70432092 C10.1698214,2.25255887 11.9939942,1.72296031 13.4457562,2.52142944 C13.9442354,2.79559297 14.3544842,3.20584177 14.6286477,3.70432092 L14.6286477,3.70432092 L22.2461053,17.5542438 C23.0445744,19.0060058 22.5149759,20.8301786 21.0632138,21.6286477 C20.6202789,21.8722619 20.1229665,22 19.6174576,22 L19.6174576,22 L4.38254244,22 C2.72568819,22 1.38254244,20.6568542 1.38254244,19 C1.38254244,18.4944911 1.5102805,17.9971787 1.75389472,17.5542438 L1.75389472,17.5542438 Z M12.3764912,4.2235543 C11.9128771,4.03449217 11.3709293,4.2188035 11.1237841,4.66815842 L11.1237841,4.66815842 L3.50632653,18.5180813 C3.42512179,18.6657262 3.38254244,18.831497 3.38254244,19 C3.38254244,19.5522847 3.83025769,20 4.38254244,20 L4.38254244,20 L19.6174576,20 C19.7859605,20 19.9517313,19.9574206 20.0993763,19.8762159 C20.583297,19.6100595 20.7598298,19.0020019 20.4936735,18.5180813 L20.4936735,18.5180813 L12.8762159,4.66815842 C12.7848281,4.5019987 12.6480785,4.3652491 12.4819187,4.27386126 L12.4819187,4.27386126 Z M12,12 C12.5522847,12 13,12.4477153 13,13 L13,13 L13,18 C13,18.5522847 12.5522847,19 12,19 C11.4477153,19 11,18.5522847 11,18 L11,18 L11,13 C11,12.4477153 11.4477153,12 12,12 Z M12,7 C12.8284271,7 13.5,7.67157288 13.5,8.5 C13.5,9.32842712 12.8284271,10 12,10 C11.1715729,10 10.5,9.32842712 10.5,8.5 C10.5,7.67157288 11.1715729,7 12,7 Z"/>
</svg>

<svg xmlns="http://www.w3.org/2000/svg" viewBox="0 0 24 24">
  <path d="M9.37 3.7a3 3 0 0 1 5.26 0l7.62 13.85A3 3 0 0 1 19.62 22H4.38a3 3 0 0 1-2.63-4.45zm3 .52a1 1 0 0 0-1.25.45L3.51 18.52A1 1 0 0 0 4.38 20h15.24a1 1 0 0 0 .87-1.48L12.88 4.67a1 1 0 0 0-.4-.4zM12 12a1 1 0 0 1 1 1v5a1 1 0 0 1-2 0v-5a1 1 0 0 1 1-1zm0-5a1.5 1.5 0 1 1 0 3 1.5 1.5 0 0 1 0-3z"/>
</svg>
